X:152
T:Galliard. THO5.152, La
R:Galliard
M:6/8
L:1/8
B:Thompson's Complete Collection of 200 Favourite Dances Vol.5
F:https://www.libraryofdance.org/manuals/1780c-Thompson-Compleat-5.pdf
Z:vmp. Peter Dunk 2024
Q:3/8=100
K:E
G/A/|B2B BAG|cAF FGA|BGE EDE|fdB B2 z &FDB, B,2G/A/|
B2B BAG|cAF FGA|BGE FEF|E3 E2:|
|:e/f/|gbg e2B|cec B3|fga bag|gff f2e/f/|
gbg e2B|cec B3|cag fed|e3 E2:|
W:
W:Frist & 2nd Couple la Poussett ./.
W:1st 2nd & 3rd Couples Promenade round with their Partners ./:
W:lead down the middle, up again & cast off :/.
W:Allemand with your Partner :/:

